X:90
T:Green Flag is Flying Reel
M:2/4
L:1/16
Z:abc by Bruce Osborne - bosborne@kos.net
K:G
GE|D2B,D G2GB|A2AB cBAG|E2c2 BcdB|G3A BAGE|!
D2B,D G2GB|A2AB cBAG|E2c2 BcdB|G3G G2:|!
|:Bd|cBcd efge|d2Bd cBAG|cBcd efge|d3B A2Bd|!
cBcd efge|d2Bd cBAG|E3c BcdB|G3G G2:|!
